!!!COM: Music21
!!!OTL: waltz_Bert-Mackenzies-70th-Birthday
!!!OMV: waltz_Bert-Mackenzies-70th-Birthday
**kern
*clefG2
*k[f#c#]
*D:
*M3/4
=1
12AL
12B
12dJ
=
4f#
8.f#L
16eJk
8.f#L
16aJk
=
4f#
8.f#L
16eJk
8.f#L
16aJk
=
4b
8.bL
16ddJk
8.bL
16aJk
=
8f#
4.a
8.ddL
16cc#Jk
=
4b
8.bL
16ddJk
8.bL
16aJk
=
4.f#
8e
8.dL
16BJk
!!linebreak:original
=
4.A
8f#
8.gL
16f#Jk
=
8e
4.A
12AL
12B
12dJ
=
4f#
8.f#L
16eJk
8.f#L
16aJk
=
4f#
8.f#L
16eJk
8.f#L
16aJk
=
4b
8.bL
16ddJk
8.bL
16aJk
=
8f#
4.a
8.ddL
16cc#Jk
!!linebreak:original
=
4b
8.bL
16ddJk
8.bL
16aJk
=
4.f#
8e
8.dL
16BJk
=
4.A
8f#
8.eL
16dJk
=
2d
4ryy
=||
*M3/4
12AL
12B
12dJ
=
4f#
8.f#L
16eJk
8.f#L
16aJk
=
4f#
8.f#L
16eJk
8.f#L
16aJk
!!linebreak:original
=
4b
8.bL
16ddJk
8.bL
16aJk
=
8f#
4.a
8.ddL
16cc#Jk
=
4b
8.bL
16ddJk
8.bL
16aJk
=
4.f#
8e
8.dL
16BJk
=
4.A
8f#
8.gL
16f#Jk
=
8e
4.A
12AL
12B
12dJ
!!linebreak:original
=
4f#
8.f#L
16eJk
8.f#L
16aJk
=
4f#
8.f#L
16eJk
8.f#L
16aJk
=
4b
8.bL
16ddJk
8.bL
16aJk
=
8f#
4.a
8.ddL
16cc#Jk
=
4b
8.bL
16ddJk
8.bL
16aJk
=
4.f#
8e
8.dL
16BJk
=
4.A
8f#
8.eL
16dJk
!!linebreak:original
=
2d
4ryy
=||
8.ddL
16cc#Jk
2ryy
=
4b
8.bL
16ddJk
8.bL
16aJk
=
8f#
4.a
8.ddL
16cc#Jk
=
4b
8.bL
16cc#Jk
8.ddL
16eeJk
=
4ff#
8.ff#L
16aaJk
12ff#L
12ee
12ddJ
=
4b
8.bL
16cc#Jk
8.ddL
16bJk
!!linebreak:original
=
8a
4.f#
8.eL
16dJk
=
4.A
8f#
8.gL
16f#Jk
=
8e
4.A
12AL
12B
12dJ
=
4f#
8.f#L
16eJk
8.f#L
16aJk
=
4f#
8.f#L
16eJk
8.f#L
16aJk
=
4b
8.bL
16ddJk
8.bL
16aJk
!!linebreak:original
=
8f#
4.a
8.ddL
16cc#Jk
=
4b
8.bL
16ddJk
8.bL
16aJk
=
4.f#
8e
8.dL
16BJk
=
4.A
8f#
8.eL
16dJk
=
2d
4ryy
=||
8.ddL
16cc#Jk
2ryy
=
4b
8.bL
16ddJk
8.bL
16aJk
!!linebreak:original
=
8f#
4.a
8.ddL
16cc#Jk
=
4b
8.bL
16cc#Jk
8.ddL
16eeJk
=
4ff#
8.ff#L
16aaJk
12ff#L
12ee
12ddJ
=
4b
8.bL
16cc#Jk
8.ddL
16bJk
=
8a
4.f#
8.eL
16dJk
=
4.A
8f#
8.gL
16f#Jk
!!linebreak:original
=
8e
4.A
12AL
12B
12dJ
=
4f#
8.f#L
16eJk
8.f#L
16aJk
=
4f#
8.f#L
16eJk
8.f#L
16aJk
=
4b
8.bL
16ddJk
8.bL
16aJk
=
8f#
4.a
8.ddL
16cc#Jk
=
4b
8.bL
16ddJk
8.bL
16aJk
!!pagebreak:original
=
4.f#
8e
8.dL
16BJk
=
4.A
8f#
8.eL
16dJk
=
2d
4ryy
=||
*-
